static/images/logo-light.svg

<svg viewBox="0 0 181 32" xmlns="http://www.w3.org/2000/svg">
<path d="m36.731 16.569c1.6519 2.8611 0.6716 6.5196-2.1895 8.1715l-7.1733 4.1414c-2.8611 1.6519-6.5196 0.6716-8.1714-2.1895-1.6519-2.8611-0.6716-6.5196 2.1895-8.1714l7.1732-4.1415c2.8612-1.6519 6.5196-0.6716 8.1715 2.1895z" clip-rule="evenodd" fill="#ADF485" fill-rule="evenodd"/>
<path d="m28.892 2.992c1.6518 2.8611 0.6716 6.5196-2.1895 8.1714l-16.74 9.6648c-2.8611 1.6519-6.5196 0.6716-8.1715-2.1895-1.6519-2.8611-0.67157-6.5196 2.1895-8.1715l16.74-9.6648c2.8611-1.6519 6.5196-0.67157 8.1715 2.1895z" clip-rule="evenodd" fill="#ADF485" fill-rule="evenodd"/>
<path d="m57.505 25.656h-3.6002v-18.397h-6.8033v-3.2316h17.264v3.2316h-6.86v18.397z" fill="#23322B"/>
<path d="m69.476 25.968c-1.5496 0-2.9292-0.3497-4.1387-1.0489s-2.1544-1.6725-2.8347-2.9198c-0.6615-1.2662-0.9922-2.7119-0.9922-4.3371 0-1.5686 0.3307-2.9671 0.9922-4.1955 0.6803-1.2472 1.6252-2.2111 2.8347-2.8914 1.2095-0.69923 2.5891-1.0488 4.1387-1.0488 1.5497 0 2.9293 0.34961 4.1388 1.0488 1.2095 0.6803 2.1544 1.6442 2.8347 2.8914 0.6804 1.2284 1.0205 2.6269 1.0205 4.1955 0 1.6063-0.3401 3.0426-1.0205 4.3088-0.6614 1.2473-1.5969 2.23-2.8064 2.9481-1.2095 0.6992-2.5985 1.0489-4.1671 1.0489zm0-2.9198c0.8694 0 1.6536-0.2268 2.3529-0.6804 0.6992-0.4724 1.2378-1.115 1.6158-1.9276 0.3969-0.8126 0.5953-1.7386 0.5953-2.778 0-0.9827-0.1984-1.871-0.5953-2.6647-0.378-0.8126-0.9166-1.4457-1.6158-1.8993-0.6993-0.4535-1.4835-0.6803-2.3529-0.6803-0.8693 0-1.6535 0.2268-2.3528 0.6803-0.6992 0.4347-1.2473 1.0583-1.6441 1.871-0.378 0.7937-0.567 1.6914-0.567 2.693 0 1.0583 0.1984 1.9937 0.5953 2.8064 0.3969 0.8126 0.9355 1.4457 1.6158 1.8992 0.6993 0.4536 1.4835 0.6804 2.3528 0.6804z" fill="#23322B"/>
<path d="m88.311 9.4979c1.3796 0 2.5891 0.34961 3.6285 1.0489 1.0583 0.6803 1.8804 1.6441 2.4662 2.8914s0.8788 2.6741 0.8788 4.2805c0 1.6063-0.293 3.0331-0.8788 4.2804s-1.4079 2.2206-2.4662 2.9198c-1.0394 0.6803-2.2489 1.0205-3.6285 1.0205-1.0016 0-1.8709-0.1795-2.608-0.5386-0.737-0.3591-1.4457-0.9922-2.126-1.8993v7.9373h-3.345v-21.629h3.345v2.1544c0.6803-0.9071 1.3796-1.5402 2.0977-1.8992 0.737-0.37801 1.6158-0.56699 2.6363-0.56699zm-0.6803 2.8914c-0.8505 0-1.6064 0.2268-2.2678 0.6804-0.6615 0.4535-1.1812 1.0866-1.5591 1.8993-0.378 0.8126-0.567 1.7292-0.567 2.7497s0.189 1.937 0.567 2.7497c0.3779 0.8126 0.8976 1.4457 1.5591 1.8992 0.6614 0.4536 1.4173 0.6804 2.2678 0.6804 1.3039 0 2.3433-0.5008 3.1182-1.5024 0.7748-1.0016 1.1622-2.2773 1.1622-3.8269 0-1.5497-0.3874-2.8253-1.1622-3.8269-0.7749-1.0017-1.8143-1.5025-3.1182-1.5025z" fill="#23322B"/>
<path d="m106.16 9.4979c1.38 0 2.589 0.34961 3.629 1.0489 1.058 0.6803 1.88 1.6441 2.466 2.8914s0.879 2.6741 0.879 4.2805c0 1.6063-0.293 3.0331-0.879 4.2804s-1.408 2.2206-2.466 2.9198c-1.04 0.6803-2.249 1.0205-3.629 1.0205-1.001 0-1.871-0.1795-2.608-0.5386s-1.445-0.9922-2.126-1.8993v7.9373h-3.3447v-21.629h3.3447v2.1544c0.681-0.9071 1.38-1.5402 2.098-1.8992 0.737-0.37801 1.616-0.56699 2.636-0.56699zm-0.68 2.8914c-0.85 0-1.606 0.2268-2.268 0.6804-0.661 0.4535-1.181 1.0866-1.559 1.8993-0.378 0.8126-0.567 1.7292-0.567 2.7497s0.189 1.937 0.567 2.7497c0.378 0.8126 0.898 1.4457 1.559 1.8992 0.662 0.4536 1.418 0.6804 2.268 0.6804 1.304 0 2.343-0.5008 3.118-1.5024s1.162-2.2773 1.162-3.8269c0-1.5497-0.387-2.8253-1.162-3.8269-0.775-1.0017-1.814-1.5025-3.118-1.5025z" fill="#23322B"/>
<path d="m123.19 25.968c-1.55 0-2.929-0.3497-4.139-1.0489-1.19-0.7181-2.116-1.6914-2.778-2.9198-0.661-1.2473-0.992-2.6457-0.992-4.1954 0-1.4363 0.293-2.7875 0.879-4.0537 0.605-1.2662 1.493-2.2867 2.665-3.0615 1.19-0.77483 2.617-1.1622 4.28-1.1622 1.399 0 2.693 0.30237 3.884 0.90714 1.209 0.5858 2.173 1.4835 2.891 2.693 0.737 1.2095 1.106 2.693 1.106 4.4505v0.8504h-12.303c0.113 0.7371 0.293 1.3229 0.539 1.7576 0.377 0.8882 0.916 1.5874 1.615 2.0977 0.718 0.5102 1.531 0.7654 2.438 0.7654 0.964 0 1.786-0.2457 2.466-0.7371 0.7-0.5102 1.2-1.1433 1.503-1.8992h3.458c-0.51 1.6441-1.398 2.9859-2.664 4.0253-1.267 1.0205-2.882 1.5308-4.848 1.5308zm4.309-10.177c-0.076-0.5858-0.246-1.0866-0.51-1.5024-0.378-0.6614-0.898-1.1622-1.559-1.5024-0.662-0.3591-1.399-0.5386-2.212-0.5386-0.831 0-1.568 0.1795-2.211 0.5386-0.642 0.3402-1.162 0.841-1.559 1.5024-0.245 0.378-0.434 0.8788-0.567 1.5024h8.618z" fill="#23322B"/>
<path d="m133.7 25.656v-15.846h3.345v1.9843c0.624-0.8315 1.304-1.4173 2.041-1.7575 0.756-0.34016 1.644-0.51024 2.665-0.51024h0.368v3.2599h-0.85c-1.266 0-2.24 0.3402-2.92 1.0205-0.869 0.8126-1.304 2.2111-1.304 4.1954v7.6538h-3.345z" fill="#23322B"/>
<path d="m151.81 14.746v-6.6518h0.518v2.612c0.388-0.5498 0.997-0.89802 1.677-0.89802 1.286 0 2.154 1.0074 2.154 2.5323s-0.878 2.5225-2.154 2.5225c-0.719 0-1.336-0.3881-1.677-0.8881v0.7686h-0.518v0.0025zm0.518-1.2064c0.279 0.4577 0.918 0.8582 1.587 0.8582 1.077 0 1.687-0.8881 1.687-2.0548s-0.61-2.0647-1.687-2.0647c-0.669 0-1.306 0.4179-1.587 0.8781v2.3832z" fill="#23322B"/>
<path d="m157.11 16.152c0.109 0.0498 0.298 0.0796 0.418 0.0796 0.318 0 0.539-0.1293 0.728-0.5895l0.379-0.8583-2.035-4.8582h0.579l1.757 4.209 1.736-4.209h0.589l-2.492 5.8757c-0.259 0.6094-0.669 0.898-1.236 0.898-0.16 0-0.379-0.0299-0.508-0.0697l0.09-0.4776h-5e-3z" fill="#23322B"/>
<path d="m154.94 25.849v-0.6393c-0.348 0.388-0.948 0.7587-1.707 0.7587-1.037 0-1.544-0.5398-1.544-1.5249v-3.4105h1.047v3.0324c0 0.7487 0.378 0.9776 0.968 0.9776 0.529 0 0.987-0.2985 1.236-0.6294v-3.3806h1.047v4.8185h-1.047v-0.0025z" fill="#23322B"/>
<path d="m158.29 27.681h-1.047v-6.6518h1.047v0.6592c0.359-0.4776 0.918-0.7786 1.545-0.7786 1.247 0 2.135 0.9378 2.135 2.5224s-0.888 2.5323-2.135 2.5323c-0.609 0-1.156-0.2686-1.545-0.7885v2.505zm1.237-5.8459c-0.488 0-1.008 0.2886-1.237 0.6493v1.9055c0.229 0.3483 0.749 0.6493 1.237 0.6493 0.828 0 1.356-0.6692 1.356-1.607 0-0.9379-0.53-1.5971-1.356-1.5971z" fill="#23322B"/>
<path d="m166.24 25.848v-3.0324c0-0.7487-0.388-0.9776-0.978-0.9776-0.53 0-0.987 0.3184-1.236 0.6493v3.3607h-1.048v-6.6518h1.048v2.4926c0.318-0.3782 0.948-0.7787 1.706-0.7787 1.038 0 1.555 0.5398 1.555 1.5249v3.4105h-1.047v0.0025z" fill="#23322B"/>
<path d="m168.25 23.433c0-1.3757 0.948-2.5224 2.473-2.5224 1.524 0 2.482 1.1467 2.482 2.5224 0 1.3756-0.938 2.5323-2.482 2.5323-1.545 0-2.473-1.1467-2.473-2.5323zm3.871 0c0-0.8483-0.498-1.5971-1.396-1.5971s-1.386 0.7488-1.386 1.5971c0 0.8482 0.498 1.607 1.386 1.607s1.396-0.7488 1.396-1.607z" fill="#23322B"/>
<path d="m174.2 25.848v-6.6518h1.047v6.6518h-1.047z" fill="#23322B"/>
<path d="m179.94 25.848v-0.6592c-0.368 0.4776-0.928 0.7786-1.545 0.7786-1.236 0-2.144-0.9378-2.144-2.5224s0.898-2.5323 2.144-2.5323c0.6 0 1.157 0.2786 1.545 0.7885v-2.5025h1.047v6.6518h-1.047v-0.0025zm0-3.3607c-0.239-0.3582-0.749-0.6492-1.246-0.6492-0.829 0-1.356 0.6691-1.356 1.6069 0 0.9379 0.53 1.5971 1.356 1.5971 0.497 0 1.007-0.2786 1.246-0.6393v-1.9155z" fill="#23322B"/>
</svg>

<svg width="181" height="32" viewBox="0 0 181 32" fill="none" xmlns="http://www.w3.org/2000/svg">
<path fill-rule="evenodd" clip-rule="evenodd" d="M36.7285 16.5689C38.3804 19.43 37.4001 23.0885 34.539 24.7403L27.3657 28.8818C24.5046 30.5337 20.8461 29.5534 19.1943 26.6923C17.5424 23.8312 18.5227 20.1727 21.3838 18.5208L28.5571 14.3793C31.4182 12.7275 35.0766 13.7078 36.7285 16.5689Z" fill="#49CC68"/>
<path fill-rule="evenodd" clip-rule="evenodd" d="M28.8906 2.99196C30.5425 5.85306 29.5622 9.51155 26.7011 11.1634L9.96118 20.8282C7.10007 22.4801 3.44159 21.4998 1.78973 18.6387C0.137868 15.7776 1.11816 12.1191 3.97926 10.4672L20.7192 0.802424C23.5803 -0.849437 27.2388 0.130851 28.8906 2.99196Z" fill="#49CC68"/>
<path d="M57.5041 25.6559H53.904V7.25846H47.1006V4.02686H64.3642V7.25846H57.5041V25.6559Z" fill="black"/>
<path d="M69.4747 25.9678C67.925 25.9678 66.5454 25.6181 65.3359 24.9189C64.1265 24.2197 63.1815 23.2464 62.5012 21.9991C61.8398 20.7329 61.509 19.2872 61.509 17.662C61.509 16.0934 61.8398 14.6949 62.5012 13.4665C63.1815 12.2193 64.1265 11.2554 65.3359 10.5751C66.5454 9.87587 67.925 9.52626 69.4747 9.52626C71.0243 9.52626 72.4039 9.87587 73.6134 10.5751C74.8229 11.2554 75.7678 12.2193 76.4481 13.4665C77.1285 14.6949 77.4686 16.0934 77.4686 17.662C77.4686 19.2683 77.1285 20.7046 76.4481 21.9708C75.7867 23.2181 74.8512 24.2008 73.6417 24.9189C72.4323 25.6181 71.0432 25.9678 69.4747 25.9678ZM69.4747 23.048C70.344 23.048 71.1283 22.8212 71.8275 22.3676C72.5267 21.8952 73.0653 21.2526 73.4433 20.44C73.8402 19.6274 74.0386 18.7014 74.0386 17.662C74.0386 16.6793 73.8402 15.791 73.4433 14.9973C73.0653 14.1847 72.5267 13.5516 71.8275 13.098C71.1283 12.6445 70.344 12.4177 69.4747 12.4177C68.6054 12.4177 67.8211 12.6445 67.1218 13.098C66.4226 13.5327 65.8746 14.1563 65.4777 14.969C65.0997 15.7627 64.9107 16.6604 64.9107 17.662C64.9107 18.7203 65.1092 19.6557 65.506 20.4684C65.9029 21.281 66.4415 21.9141 67.1218 22.3676C67.8211 22.8212 68.6054 23.048 69.4747 23.048Z" fill="black"/>
<path d="M88.3104 9.49791C89.69 9.49791 90.8995 9.84752 91.9389 10.5468C92.9972 11.2271 93.8193 12.1909 94.4051 13.4382C94.991 14.6855 95.2839 16.1123 95.2839 17.7187C95.2839 19.325 94.991 20.7518 94.4051 21.9991C93.8193 23.2464 92.9972 24.2197 91.9389 24.9189C90.8995 25.5992 89.69 25.9394 88.3104 25.9394C87.3088 25.9394 86.4395 25.7599 85.7025 25.4008C84.9654 25.0417 84.2567 24.4086 83.5764 23.5015V31.4388H80.2314V9.80973H83.5764V11.9641C84.2567 11.057 84.956 10.4239 85.6741 10.0649C86.4111 9.68689 87.2899 9.49791 88.3104 9.49791ZM87.6301 12.3893C86.7797 12.3893 86.0237 12.6161 85.3623 13.0697C84.7009 13.5232 84.1811 14.1563 83.8032 14.969C83.4252 15.7816 83.2362 16.6982 83.2362 17.7187C83.2362 18.7392 83.4252 19.6557 83.8032 20.4684C84.1811 21.281 84.7009 21.9141 85.3623 22.3676C86.0237 22.8212 86.7797 23.048 87.6301 23.048C88.9341 23.048 89.9735 22.5472 90.7483 21.5456C91.5231 20.544 91.9105 19.2683 91.9105 17.7187C91.9105 16.169 91.5231 14.8934 90.7483 13.8918C89.9735 12.8901 88.9341 12.3893 87.6301 12.3893Z" fill="black"/>
<path d="M106.159 9.49791C107.539 9.49791 108.748 9.84752 109.788 10.5468C110.846 11.2271 111.668 12.1909 112.254 13.4382C112.84 14.6855 113.133 16.1123 113.133 17.7187C113.133 19.325 112.84 20.7518 112.254 21.9991C111.668 23.2464 110.846 24.2197 109.788 24.9189C108.748 25.5992 107.539 25.9394 106.159 25.9394C105.158 25.9394 104.288 25.7599 103.551 25.4008C102.814 25.0417 102.106 24.4086 101.425 23.5015V31.4388H98.0803V9.80973H101.425V11.9641C102.106 11.057 102.805 10.4239 103.523 10.0649C104.26 9.68689 105.139 9.49791 106.159 9.49791ZM105.479 12.3893C104.629 12.3893 103.873 12.6161 103.211 13.0697C102.55 13.5232 102.03 14.1563 101.652 14.969C101.274 15.7816 101.085 16.6982 101.085 17.7187C101.085 18.7392 101.274 19.6557 101.652 20.4684C102.03 21.281 102.55 21.9141 103.211 22.3676C103.873 22.8212 104.629 23.048 105.479 23.048C106.783 23.048 107.822 22.5472 108.597 21.5456C109.372 20.544 109.759 19.2683 109.759 17.7187C109.759 16.169 109.372 14.8934 108.597 13.8918C107.822 12.8901 106.783 12.3893 105.479 12.3893Z" fill="black"/>
<path d="M123.186 25.9678C121.637 25.9678 120.257 25.6181 119.047 24.9189C117.857 24.2008 116.931 23.2275 116.269 21.9991C115.608 20.7518 115.277 19.3534 115.277 17.8037C115.277 16.3674 115.57 15.0162 116.156 13.75C116.761 12.4838 117.649 11.4633 118.821 10.6885C120.011 9.91367 121.438 9.52626 123.101 9.52626C124.5 9.52626 125.794 9.82863 126.985 10.4334C128.194 11.0192 129.158 11.9169 129.876 13.1264C130.613 14.3359 130.982 15.8194 130.982 17.5769V18.4273H118.679C118.792 19.1644 118.972 19.7502 119.218 20.1849C119.595 21.0731 120.134 21.7723 120.833 22.2826C121.551 22.7928 122.364 23.048 123.271 23.048C124.235 23.048 125.057 22.8023 125.737 22.3109C126.437 21.8007 126.937 21.1676 127.24 20.4117H130.698C130.188 22.0558 129.3 23.3976 128.034 24.437C126.767 25.4575 125.152 25.9678 123.186 25.9678ZM127.495 15.791C127.419 15.2052 127.249 14.7044 126.985 14.2886C126.607 13.6272 126.087 13.1264 125.426 12.7862C124.764 12.4271 124.027 12.2476 123.215 12.2476C122.383 12.2476 121.646 12.4271 121.003 12.7862C120.361 13.1264 119.841 13.6272 119.444 14.2886C119.199 14.6666 119.01 15.1674 118.877 15.791H127.495Z" fill="black"/>
<path d="M133.695 25.6559V9.80973H137.04V11.794C137.664 10.9625 138.344 10.3767 139.081 10.0365C139.837 9.69634 140.725 9.52626 141.746 9.52626H142.114V12.7862H141.264C139.998 12.7862 139.024 13.1264 138.344 13.8067C137.475 14.6193 137.04 16.0178 137.04 18.0021V25.6559H133.695Z" fill="black"/>
<path d="M151.813 14.7464V8.09454H152.331V10.7065C152.719 10.1568 153.328 9.80849 154.007 9.80849C155.293 9.80849 156.161 10.816 156.161 12.3409C156.161 13.8657 155.283 14.8633 154.007 14.8633C153.288 14.8633 152.671 14.4752 152.331 13.9752V14.7439H151.813V14.7464ZM152.331 13.5399C152.609 13.9976 153.248 14.3981 153.918 14.3981C154.995 14.3981 155.604 13.51 155.604 12.3433C155.604 11.1767 154.995 10.2786 153.918 10.2786C153.248 10.2786 152.612 10.6966 152.331 11.1568V13.5399Z" fill="black"/>
<path d="M157.11 16.152C157.219 16.2018 157.408 16.2316 157.527 16.2316C157.846 16.2316 158.067 16.1023 158.256 15.6421L158.634 14.7839L156.6 9.9256H157.179L158.935 14.1346L160.672 9.9256H161.261L158.769 15.8013C158.51 16.4107 158.1 16.6993 157.532 16.6993C157.373 16.6993 157.154 16.6694 157.025 16.6296L157.114 16.152H157.11Z" fill="black"/>
<path d="M154.936 25.8491V25.2098C154.587 25.5979 153.988 25.9685 153.229 25.9685C152.192 25.9685 151.684 25.4287 151.684 24.4436V21.0331H152.732V24.0655C152.732 24.8143 153.11 25.0431 153.699 25.0431C154.229 25.0431 154.687 24.7446 154.936 24.4138V21.0331H155.983V25.8516H154.936V25.8491Z" fill="black"/>
<path d="M158.288 27.6813H157.241V21.0295H158.288V21.6887C158.647 21.2111 159.206 20.9101 159.833 20.9101C161.079 20.9101 161.968 21.8479 161.968 23.4325C161.968 25.0171 161.079 25.9649 159.833 25.9649C159.224 25.9649 158.676 25.6962 158.288 25.1763V27.6788V27.6813ZM159.525 21.8355C159.037 21.8355 158.517 22.124 158.288 22.4847V24.3902C158.517 24.7385 159.037 25.0395 159.525 25.0395C160.353 25.0395 160.88 24.3703 160.88 23.4325C160.88 22.4947 160.351 21.8355 159.525 21.8355Z" fill="black"/>
<path d="M166.244 25.848V22.8157C166.244 22.0669 165.856 21.838 165.266 21.838C164.736 21.838 164.279 22.1565 164.03 22.4873V25.848H162.983V19.1962H164.03V21.6888C164.348 21.3107 164.978 20.9102 165.736 20.9102C166.774 20.9102 167.291 21.45 167.291 22.4351V25.8456H166.244V25.848Z" fill="black"/>
<path d="M168.256 23.4325C168.256 22.0569 169.204 20.9101 170.729 20.9101C172.254 20.9101 173.211 22.0569 173.211 23.4325C173.211 24.8081 172.273 25.9649 170.729 25.9649C169.184 25.9649 168.256 24.8181 168.256 23.4325ZM172.127 23.4325C172.127 22.5842 171.629 21.8355 170.731 21.8355C169.833 21.8355 169.346 22.5842 169.346 23.4325C169.346 24.2808 169.843 25.0395 170.731 25.0395C171.619 25.0395 172.127 24.2907 172.127 23.4325Z" fill="black"/>
<path d="M174.204 25.848V19.1962H175.251V25.848H174.204Z" fill="black"/>
<path d="M179.94 25.8485V25.1893C179.572 25.6669 179.012 25.9679 178.395 25.9679C177.159 25.9679 176.251 25.0301 176.251 23.4455C176.251 21.8609 177.149 20.9131 178.395 20.9131C178.995 20.9131 179.552 21.1917 179.94 21.7017V19.1992H180.988V25.851H179.94V25.8485ZM179.94 22.4877C179.701 22.1295 179.191 21.8385 178.694 21.8385C177.866 21.8385 177.338 22.5076 177.338 23.4455C177.338 24.3833 177.868 25.0425 178.694 25.0425C179.191 25.0425 179.701 24.7639 179.94 24.4032V22.4877Z" fill="black"/>
</svg>
